X:1
T:Title
%%score { ( 1 3 ) | ( 2 4 ) }
L:1/8
M:4/4
K:C
V:1 treble nm="Grand Piano"
V:3 treble 
V:2 bass 
V:4 bass 
V:1
 z4 z2[Q:1/4=114] [G,EG]2 | [G,EG]4 [G,EG]2 [G,EG]2 | [G,EG]4 [G,CE]2 [G,EG]2 | %3
 [DF]2 [CE]2 [G,DF]2 [G,EG]2 | [DF]4 E2 E2 | C4 D2 D2 | z2 C2 [DF]2 [EG]2 | [FA]2 [EG]2 F2 E2 | %8
 E4 D2 [G,B,D]2 | [G,DF]4 [G,DF]2 [G,DF]2 | [G,CE]4 [G,CE]2 [G,EG]2 | [DF]2 [CE]2 [DF]2 [EG]2 | %12
 [DF]4 [CE]2 [EG]2 | [Ge]2 [Fd]2 [Ec]2 [GB]2 | [FA]2 G2 F2 E2 | E2 D2 D3 [B,D] |[M:3/4] C6 |] %17
V:2
 z4 z2 C,2 | C,4 C,2 C,2 | C,4 C,2 C,2 | G,2 G,2 G,,2 G,,2 | z4 C2 [C,G,C]2 | %5
 [E,G,]4 [G,B,]2 [G,B,]2 | [G,C]2 z2 [C,C]2 [C,C]2 | [C,C]2 [C,C]2 [F,A,D]2 [^F,A,C]2 | G,6 z2 | %9
 G,,4 G,,2 G,,2 | C,4 C,2 C,2 | G,2 G,2 [G,,G,]2 [G,,G,]2 | [C,G,]6 [C,G,]2 | %13
 [C,G,]2 [C,G,]2 [C,G,]2 [C,C]2 | z2 E2 [G,B,D]2 [A,C]2 | [F,A,C]4 [G,B,]3 [G,,F,] | %16
[M:3/4] [C,E,]6 |] %17
V:3
 x8 | x8 | x8 | x8 | G,6 z2 | x8 | E4 z4 | x8 | x8 | x8 | x8 | x8 | x8 | x8 | x8 | x8 | %16
[M:3/4] x6 |] %17
V:4
 x8 | x8 | x8 | x8 | C,6 z2 | x8 | C,4 z4 | x8 | C4 B,2 G,,2 | x8 | x8 | x8 | x8 | x8 | [C,C]4 z4 | %15
 x8 |[M:3/4] x6 |] %17

